X:1
T:Swan Theme Reprise
C:Pyotr Ilyich Tchaikovsky
Q:1/4=60
M:4/4
L:1/8
K:Bm
z6 B2 | B3c d3B | A6 z2 | B3c d3B | B8 |
B3c dcBA | B3c d3B | A3B cdcB | B8 |]
